icons/evolvere-blue-folders-flat-vivid-dark-fallback/apps/64/users.svg

<?xml version="1.0" encoding="UTF-8" standalone="no"?>
<!-- Created with Inkscape (http://www.inkscape.org/) -->

<svg
   xmlns:dc="http://purl.org/dc/elements/1.1/"
   xmlns:cc="http://creativecommons.org/ns#"
   xmlns:rdf="http://www.w3.org/1999/02/22-rdf-syntax-ns#"
   xmlns:svg="http://www.w3.org/2000/svg"
   xmlns="http://www.w3.org/2000/svg"
   xmlns:xlink="http://www.w3.org/1999/xlink"
   xmlns:sodipodi="http://sodipodi.sourceforge.net/DTD/sodipodi-0.dtd"
   xmlns:inkscape="http://www.inkscape.org/namespaces/inkscape"
   width="64"
   height="64"
   id="svg13094"
   version="1.1"
   inkscape:version="0.48.4 r9939"
   sodipodi:docname="users.svg">
  <sodipodi:namedview
     id="base"
     pagecolor="#ffffff"
     bordercolor="#666666"
     borderopacity="1.0"
     inkscape:pageopacity="0"
     inkscape:pageshadow="2"
     inkscape:zoom="11.313709"
     inkscape:cx="30.213684"
     inkscape:cy="28.311212"
     inkscape:document-units="px"
     inkscape:current-layer="svg13094"
     showgrid="true"
     inkscape:snap-bbox="true"
     inkscape:bbox-paths="true"
     inkscape:bbox-nodes="true"
     inkscape:snap-bbox-edge-midpoints="true"
     inkscape:snap-bbox-midpoints="true"
     inkscape:object-paths="true"
     inkscape:snap-intersection-paths="true"
     inkscape:object-nodes="true"
     inkscape:snap-smooth-nodes="true"
     inkscape:snap-midpoints="true"
     inkscape:snap-object-midpoints="true"
     inkscape:snap-center="true"
     showguides="true"
     inkscape:guide-bbox="true"
     inkscape:window-width="1920"
     inkscape:window-height="1025"
     inkscape:window-x="-2"
     inkscape:window-y="32"
     inkscape:window-maximized="1"
     inkscape:snap-global="true"
     fit-margin-top="0"
     fit-margin-left="0"
     fit-margin-right="0"
     fit-margin-bottom="0"
     showborder="true"
     inkscape:showpageshadow="false"
     inkscape:snap-page="true">
    <inkscape:grid
       type="xygrid"
       id="grid3075"
       empspacing="5"
       visible="true"
       enabled="true"
       snapvisiblegridlinesonly="true"
       originx="1.6362304e-08px"
       originy="18px" />
  </sodipodi:namedview>
  <defs
     id="defs13096">
    <linearGradient
       id="linearGradient5602">
      <stop
         id="stop5604"
         style="stop-color:#635795;stop-opacity:1;"
         offset="0" />
      <stop
         id="stop5606"
         style="stop-color:#5b4c8f;stop-opacity:1;"
         offset="1" />
    </linearGradient>
    <linearGradient
       inkscape:collect="always"
       xlink:href="#linearGradient5602"
       id="linearGradient3828"
       x1="22.737206"
       y1="64"
       x2="22.737206"
       y2="4"
       gradientUnits="userSpaceOnUse" />
    <linearGradient
       id="linearGradient5602-7">
      <stop
         id="stop5604-5"
         style="stop-color:#573cc8;stop-opacity:1;"
         offset="0" />
      <stop
         id="stop5606-2"
         style="stop-color:#5038a3;stop-opacity:1;"
         offset="1" />
    </linearGradient>
  </defs>
  <metadata
     id="metadata13099">
    <rdf:RDF>
      <cc:Work
         rdf:about="">
        <dc:format>image/svg+xml</dc:format>
        <dc:type
           rdf:resource="http://purl.org/dc/dcmitype/StillImage" />
        <dc:title />
      </cc:Work>
    </rdf:RDF>
  </metadata>
  <path
     inkscape:connector-curvature="0"
     style="color:#000000;fill:#5c3ed2;fill-opacity:1;fill-rule:nonzero;stroke:none;stroke-width:2.28571415;marker:none;visibility:visible;display:inline;overflow:visible;enable-background:accumulate"
     d="m 0,4 0,30 0,28 2,2 30,0 30,0 2,-2 L 64,34 64,4 32,4 0,4 z"
     id="path6498" />
  <path
     inkscape:connector-curvature="0"
     style="color:#000000;fill:#a279ff;fill-opacity:1;fill-rule:nonzero;stroke:none;stroke-width:2.28571415;marker:none;visibility:visible;display:inline;overflow:visible;enable-background:accumulate"
     d="M 2,0 0,1 0,4 32,4 64,4 64,1 62,0 32,0 2,0 z"
     id="path6502" />
  <path
     inkscape:connector-curvature="0"
     style="fill:#b696ff;fill-opacity:1;fill-rule:nonzero"
     d="M 0,3 0,6 2,4 z"
     id="path4298"
     sodipodi:nodetypes="cccc" />
  <path
     d="M 64,6 62,4 64,3 z"
     id="path3028"
     style="fill:#7a58e5;fill-opacity:1"
     inkscape:connector-curvature="0" />
  <g
     id="g3043"
     inkscape:export-filename="folder.png"
     inkscape:export-xdpi="90"
     inkscape:export-ydpi="90"
     transform="translate(-0.62500009,0.082283)" />
  <g
     id="scalable"
     transform="matrix(1.0385892,0,0,1.0385892,1214.7222,1878.8121)"
     inkscape:label="#g3701"
     style="fill:#ffffff" />
  <path
     inkscape:connector-curvature="0"
     style="color:#000000;fill:#dddcef;fill-opacity:1;fill-rule:nonzero;stroke:none;stroke-width:1;marker:none;visibility:visible;display:inline;overflow:visible;enable-background:accumulate"
     d="m 35.999978,19.04929 c -6.292713,0 -7.633957,4.616494 -7.492865,7.35149 l 0.212063,2.332684 c -1.760502,0.02126 -0.908175,4.75655 0.353436,4.594684 0.555402,2.010547 1.584412,3.281916 2.686121,4.241243 0.235046,1.558189 0.148236,2.652535 0.07071,4.029183 C 27.528462,44.452985 20.16602,45.004017 20.16602,46.193257 20.16602,48.918571 26.509036,51 36,51 c 9.490888,0 15.83398,-2.081489 15.83398,-4.806743 0,-1.189132 -7.362461,-1.74027 -11.663423,-4.594683 -0.07691,-1.376651 -0.164335,-2.471118 0.0707,-4.029183 1.101591,-0.959311 2.130576,-2.230781 2.686121,-4.241243 1.261517,0.161958 2.11395,-4.572063 0.353436,-4.594684 l 0.212053,-2.332684 c 0.141134,-2.73498 -1.20023,-7.35149 -7.49288,-7.35149 z"
     id="path3811" />
  <path
     style="color:#000000;fill:#dddcef;fill-opacity:0.51298118;fill-rule:nonzero;stroke:none;stroke-width:1;marker:none;visibility:visible;display:inline;overflow:visible;enable-background:accumulate"
     d="m 22.71875,16.21875 c -5.355031,0 -6.495068,3.953797 -6.375,6.28125 L 16.5,24.46875 c -1.498167,0.01809 -0.761118,4.043997 0.3125,3.90625 0.472641,1.710954 1.343707,2.808624 2.28125,3.625 0.200021,1.326003 0.128476,2.234738 0.0625,3.40625 -3.660088,2.429074 -9.9375,2.925471 -9.9375,3.9375 0,2.163358 4.750873,3.814335 11.9375,4.03125 0.811644,-0.258927 1.719619,-0.511026 2.71875,-0.78125 2.015346,-0.545068 4.208101,-1.289424 5.9375,-2.21875 0.02802,-0.664367 0.04883,-1.352316 -0.03125,-2.0625 -0.492679,-0.507206 -0.932627,-1.099267 -1.34375,-1.78125 -0.776126,-0.324879 -1.528512,-0.687651 -2.1875,-1.125 -0.04605,-0.824474 -0.07509,-1.53593 -0.03125,-2.34375 -0.225386,-0.558106 -0.360403,-1.122187 -0.4375,-1.71875 -0.102796,-0.795417 -0.111436,-1.602107 0.1875,-2.5 0.115704,-0.347533 0.364854,-0.708789 0.65625,-1.0625 l -0.125,-1.1875 0,-0.0625 0,-0.03125 c -0.09033,-1.750951 0.252478,-4.013572 1.71875,-6 0.152599,-0.206734 0.321408,-0.399646 0.5,-0.59375 -0.67938,-1.884678 -2.375884,-3.6875 -6,-3.6875 z"
     id="path3033"
     inkscape:connector-curvature="0"
     sodipodi:nodetypes="scccccscscccccssccccscs" />
</svg>

<svg xmlns="http://www.w3.org/2000/svg" viewBox="0 0 64 64"><g color="#000"><path d="m0 4v30 28l2 2h30 30l2-2v-28-30h-32-32" fill="#5c3ed2"/><path d="m2 0l-2 1v3h32 32v-3l-2-1h-30-30" fill="#a279ff"/></g><path d="m0 3v3l2-2z" fill="#b696ff"/><path d="m64 6l-2-2 2-1z" fill="#7a58e5"/><g fill="#dddcef" color="#000"><path d="m36 19.05c-6.293 0-7.634 4.616-7.493 7.351l.212 2.333c-1.761.021-.908 4.757.353 4.595.555 2.01 1.584 3.282 2.686 4.241.235 1.558.148 2.653.071 4.03-4.301 2.854-11.663 3.405-11.663 4.595 0 2.725 6.343 4.807 15.834 4.807 9.491 0 15.834-2.081 15.834-4.807 0-1.189-7.362-1.74-11.663-4.595-.077-1.377-.164-2.471.071-4.03 1.102-.959 2.131-2.231 2.686-4.241 1.262.162 2.114-4.572.353-4.595l.212-2.333c.141-2.735-1.2-7.351-7.493-7.351"/><path d="m22.719 16.219c-5.355 0-6.495 3.954-6.375 6.281l.156 1.969c-1.498.018-.761 4.04.313 3.906.473 1.711 1.344 2.809 2.281 3.625.2 1.326.128 2.235.063 3.406-3.66 2.429-9.938 2.925-9.938 3.938 0 2.163 4.751 3.814 11.938 4.03.812-.259 1.72-.511 2.719-.781 2.02-.545 4.208-1.289 5.938-2.219.028-.664.049-1.352-.031-2.063-.493-.507-.933-1.099-1.344-1.781-.776-.325-1.529-.688-2.188-1.125-.046-.824-.075-1.536-.031-2.344-.225-.558-.36-1.122-.438-1.719-.103-.795-.111-1.602.188-2.5.116-.348.365-.709.656-1.063l-.125-1.188v-.063-.031c-.09-1.751.252-4.01 1.719-6 .153-.207.321-.4.5-.594-.679-1.885-2.376-3.688-6-3.688" fill-opacity=".513"/></g></svg>
